src/renderer/assets/icon/listicon-default-icon.svg

<?xml version="1.0" encoding="UTF-8"?>
<svg viewBox="0 0 60 50" version="1.1" xmlns="http://www.w3.org/2000/svg" xmlns:xlink="http://www.w3.org/1999/xlink">
    <!-- Generator: Sketch 52.1 (67048) - http://www.bohemiancoding.com/sketch -->
    <desc>Created with Sketch.</desc>
    <defs>
        <filter x="-15.3%" y="-18.1%" width="128.6%" height="138.9%" filterUnits="objectBoundingBox" id="filter-1">
            <feOffset dx="0" dy="1" in="SourceAlpha" result="shadowOffsetOuter1"></feOffset>
            <feGaussianBlur stdDeviation="1" in="shadowOffsetOuter1" result="shadowBlurOuter1"></feGaussianBlur>
            <feColorMatrix values="0 0 0 0 0   0 0 0 0 0   0 0 0 0 0  0 0 0 0.1 0" type="matrix" in="shadowBlurOuter1" result="shadowMatrixOuter1"></feColorMatrix>
            <feMerge>
                <feMergeNode in="shadowMatrixOuter1"></feMergeNode>
                <feMergeNode in="SourceGraphic"></feMergeNode>
            </feMerge>
        </filter>
    </defs>
    <g id="Playing-View-Button-/-Playlist" stroke="none" stroke-width="1" fill="none" fill-rule="evenodd">
        <g id="Icon---Playlist" filter="url(#filter-1)" transform="translate(7.000000, 8.000000)">
            <path d="M1,0.5 L45.0002914,0.5 C45.5525762,0.5 46.0002914,0.94771525 46.0002914,1.5 L46.0002914,5 C46.0002914,5.55228475 45.5525762,6 45.0002914,6 L1,6 C0.44771525,6 6.76353751e-17,5.55228475 0,5 L0,1.5 C-6.76353751e-17,0.94771525 0.44771525,0.5 1,0.5 Z M1,13.5 L45.0002914,13.5 C45.5525762,13.5 46.0002914,13.9477153 46.0002914,14.5 L46.0002914,18 C46.0002914,18.5522847 45.5525762,19 45.0002914,19 L1,19 C0.44771525,19 6.76353751e-17,18.5522847 0,18 L0,14.5 C-6.76353751e-17,13.9477153 0.44771525,13.5 1,13.5 Z M1,26.5 L31,26.5 C31.5522847,26.5 32,26.9477153 32,27.5 L32,31 C32,31.5522847 31.5522847,32 31,32 L1,32 C0.44771525,32 6.76353751e-17,31.5522847 0,31 L0,27.5 C-6.76353751e-17,26.9477153 0.44771525,26.5 1,26.5 Z M37.695766,25.900134 C37.695766,25.6913412 37.746057,25.48562 37.8423841,25.3003755 C38.1736216,24.6633803 38.9585293,24.4155147 39.5955245,24.7467522 L47.6364867,28.9280525 C47.9100035,29.0702812 48.1330541,29.2933319 48.2752828,29.5668486 C48.6574799,30.3018431 48.3714812,31.2075058 47.6364867,31.5897029 L39.5955245,35.7710033 C39.41028,35.8673304 39.2045588,35.9176214 38.995766,35.9176214 C38.2777958,35.9176214 37.695766,35.3355916 37.695766,34.6176214 L37.695766,25.900134 Z" id="Combined-Shape" fill-opacity="0.9" fill="#FFFFFF"></path>
            <path d="M1,0.5 L45.0002914,0.5 C45.5525762,0.5 46.0002914,0.94771525 46.0002914,1.5 L46.0002914,5 C46.0002914,5.55228475 45.5525762,6 45.0002914,6 L1,6 C0.44771525,6 6.76353751e-17,5.55228475 0,5 L0,1.5 C-6.76353751e-17,0.94771525 0.44771525,0.5 1,0.5 Z M1,13.5 L45.0002914,13.5 C45.5525762,13.5 46.0002914,13.9477153 46.0002914,14.5 L46.0002914,18 C46.0002914,18.5522847 45.5525762,19 45.0002914,19 L1,19 C0.44771525,19 6.76353751e-17,18.5522847 0,18 L0,14.5 C-6.76353751e-17,13.9477153 0.44771525,13.5 1,13.5 Z M1,26.5 L31,26.5 C31.5522847,26.5 32,26.9477153 32,27.5 L32,31 C32,31.5522847 31.5522847,32 31,32 L1,32 C0.44771525,32 6.76353751e-17,31.5522847 0,31 L0,27.5 C-6.76353751e-17,26.9477153 0.44771525,26.5 1,26.5 Z M37.695766,25.900134 C37.695766,25.6913412 37.746057,25.48562 37.8423841,25.3003755 C38.1736216,24.6633803 38.9585293,24.4155147 39.5955245,24.7467522 L47.6364867,28.9280525 C47.9100035,29.0702812 48.1330541,29.2933319 48.2752828,29.5668486 C48.6574799,30.3018431 48.3714812,31.2075058 47.6364867,31.5897029 L39.5955245,35.7710033 C39.41028,35.8673304 39.2045588,35.9176214 38.995766,35.9176214 C38.2777958,35.9176214 37.695766,35.3355916 37.695766,34.6176214 L37.695766,25.900134 Z" id="Combined-Shape" stroke-opacity="0.3" stroke="#000000" stroke-width="0.5" opacity="0.28"></path>
        </g>
    </g>
</svg>

<svg viewBox="0 0 60 50" xmlns="http://www.w3.org/2000/svg">
    <defs>
        <filter x="-15.3%" y="-18.1%" width="128.6%" height="138.9%" filterUnits="objectBoundingBox" id="a">
            <feOffset dy="1" in="SourceAlpha" result="shadowOffsetOuter1"/>
            <feGaussianBlur stdDeviation="1" in="shadowOffsetOuter1" result="shadowBlurOuter1"/>
            <feColorMatrix values="0 0 0 0 0 0 0 0 0 0 0 0 0 0 0 0 0 0 0.1 0" in="shadowBlurOuter1" result="shadowMatrixOuter1"/>
            <feMerge>
                <feMergeNode in="shadowMatrixOuter1"/>
                <feMergeNode in="SourceGraphic"/>
            </feMerge>
        </filter>
    </defs>
    <g filter="url(#a)" transform="translate(7 8)" fill="none" fill-rule="evenodd">
        <path d="M1 .5h44a1 1 0 011 1V5a1 1 0 01-1 1H1a1 1 0 01-1-1V1.5a1 1 0 011-1zm0 13h44a1 1 0 011 1V18a1 1 0 01-1 1H1a1 1 0 01-1-1v-3.5a1 1 0 011-1zm0 13h30a1 1 0 011 1V31a1 1 0 01-1 1H1a1 1 0 01-1-1v-3.5a1 1 0 011-1zm36.696-.6a1.3 1.3 0 011.9-1.153l8.04 4.181a1.5 1.5 0 010 2.662l-8.04 4.181a1.3 1.3 0 01-1.9-1.153V25.9z" fill-opacity=".9" fill="#FFF"/>
        <path d="M1 .5h44a1 1 0 011 1V5a1 1 0 01-1 1H1a1 1 0 01-1-1V1.5a1 1 0 011-1zm0 13h44a1 1 0 011 1V18a1 1 0 01-1 1H1a1 1 0 01-1-1v-3.5a1 1 0 011-1zm0 13h30a1 1 0 011 1V31a1 1 0 01-1 1H1a1 1 0 01-1-1v-3.5a1 1 0 011-1zm36.696-.6a1.3 1.3 0 011.9-1.153l8.04 4.181a1.5 1.5 0 010 2.662l-8.04 4.181a1.3 1.3 0 01-1.9-1.153V25.9z" stroke-opacity=".3" stroke="#000" stroke-width=".5" opacity=".28"/>
    </g>
</svg>
